X:1
T:Orgelintermezzi II
T:Orgelintermezzi II
T:nummer 1
T:Jef Tinel (1885-1972)
T:Ad van de Wege
C:Jef Tinel (1885-1972)
Z:Ad van de Wege
%%score { ( 1 3 5 ) | ( 2 4 ) }
L:1/8
M:4/4
K:Ab
V:1 treble nm="Orgel" snm="Org."
V:3 treble 
V:5 treble 
V:2 bass 
V:4 bass 
V:1
"_Pos." [Ace]2 | [FBd]2 [Gdf]2 [Ace]2 ([FAc]2 | [AB]2) ([Gd]2 [=EGc]2) [C_E]2 | %3
 [EA]2 [FB]2 [Gc]2 [Ad]2 | A2 F2 G2 ([GAc]2 | [FABd]2) [EGdf]2 [FAce]2"_Recit." [EFAc]2 | %6
 B2 d2 c4 | B2 A4 G2 | A4 A2"_G.O." [Ac]2 | [DEGB]2 [_C=DFA]2 [B,=CEG]2 [DFc]2 | %10
 [EB]2 [=DA]2 [CG]2 [B,F]2 | E2 B2 A2 G2 | F4 F2 G2 | [CF]2 [B,E]2 [=A,=D]2 [F=d]2 | %14
 [Ge]2 [Af]2 [_Bg]2 [ca]2 | b2 a2 [cg]2 [=df]2 | (e4 e2)"_Pos." e2 | %17
 [FBd]2 [Gdf]2 [Ace]2 [_Gceb]2 | [FBda]2 [EAc_g]2 [=DABf]2 [CE=Ag]2 | %19
 [_C__E_Af]2 [B,D=Ge]2 [Fd]2 [GB]2 | [F=A]2 [GB]2 [Ac]2"_Recit." [_Ad]2 | [Fc]2 [GB]2 [GA]2 [FA]2 | %22
 [EG]2 [DF]2 [CE]2 [EA]2 | e2 d2 F2 B2 | (A8 | (A8) | (A8) |"^Rit. -----------------------" (A8) | %28
 (A4) A) z x2 |] %29
V:2
 z2 | z6 E2 | D2 B,2 C2!ped! [A,B,]2!ped-up! | [F,C]2 [E,D]2 [C,E]2 [B,,F]2 | F2 =D2 E2 z2 | z8 | %6
 [DE]2 [B,F]2 [A,DE]2!ped! [F,E]2!ped-up! | D2 C2 D2 CB, | F,2 G,2 E,2 z2 | z6!ped! A,2!ped-up! | %10
 [G,C]2 [F,B,]2 [E,=A,]2 [=D,_A,]2 | [C,G,]2 [A,,C]2 [F,,_C]2 [=A,,=C]2 | C2 =A,2 B,2 =B,2 | %13
 [E,=A,]2 [=D,G,]2 [C,^F,]2 [=B,,_A,]2 | [C,_B,]2 [=D,=B,]2 [=E,C]2 [F,=D]2 | =E2 F2 (B,4 | %16
 [C,B,]2) [A,,C]2 [E,,B,]2 x2 | z8 | z8 | z4 [G,B,]2 [=E,D]2 | C2 D2 E2 F2 | %21
 D4 C2!ped! B,2!ped-up! | [F,A,]2 [G,B,]2 [A,B,]2 [F,C]2 | A,4 B,2 A,G, | A,2 _F,2 _G,2 B,2 | %25
 __B,2 A,2 =G,2 _G,2 | F,4 _F,4 | E,2 =D,2 E,2 _F,2 | ([A,,E,]4"_tijdsduur 1'40''" [A,,E,]) z x2 |] %29
V:3
 x2 | x8 | F4 x4 | x8 | (B4 B2) e2 | x8 | G4 B2 A2 | G2 F4 ED | [B,D]2 [CE]2 [A,C]2 [EF]2 | x8 | %10
 x8 | B,2 G2 E4 | E2 C2 =D2 D2 | x8 | x8 | _d2 (c2 A4) | G2 F2 G2 [Ac]2 | x8 | x8 | x8 | x8 | x8 | %22
 x8 | G2 F2 D4 | C2 [B,D]2 [CE]2 [E_G]2 | [E_G]2 [DF]4 [CE]2 | [CE]2 [B,D]4 [A,C]2 | %27
 C2 =B,2 C2 D2 | ([A,C]4 [A,C]) z x2 |] %29
V:4
 x2 | x8 | x8 | x8 | E,4 E,2 x2 | x8 | x8 | E,2 D,2 B,,2 E,2 | A,,4 A,,2 x2 | x8 | x8 | x8 | %12
 B,,4 B,,2 F,2 | x8 | x8 | G,2 A,2 B,2 B,,2 | x8 | x8 | x8 | x8 | (F,4 F,2 B,2 | %21
 E,2 =E,2 F,2 D,2) | x8 | C,2 B,,2 E,2 E,,2 | F,,2 D,,2 (A,,4 | (A,,8) | (A,,8) | A,,8) | x8 |] %29
V:5
 x2 | x8 | x8 | x8 | x8 | x8 | x8 | x8 | x8 | x8 | x8 | x8 | x8 | x8 | x8 | x8 | x8 | x8 | x8 | %19
 x8 | x8 | x8 | x8 | x8 | x8 | x8 | x8 | A,6 _B,2 | x8 |] %29

